Obsidian-SemiLight/actions/24s/edit-select-lasso.svg

<svg viewBox="0 0 24 24" xmlns="http://www.w3.org/2000/svg"><path d="m11.912109 4a8 6.00001 0 0 0 -2.4179684.3027344l.8378904.8417968a7 5 0 0 1 1.667969-.1484374 7 5 0 0 1 .527344.0195312zm1.207032.0625.669921 1.1054688a7 5 0 0 1 2.742188 1.0175781l.8125-.6445313a8 6.00001 0 0 0 -4.224609-1.4785156zm-4.7011722.5761719a8 6.00001 0 0 0 -1.859375.96875l.9726562.546875a7 5 0 0 1 1.6640625-.7324219zm9.7402342 1.53125-.789062.6269531a7 5 0 0 1 .794921.8378906l1-.2929687a8 6.00001 0 0 0 -1.005859-1.171875zm-12.439453.1113281a8 6.00001 0 0 0 -1.0332031 1.3046875l.9316406.3671875a7 5 0 0 1 1.0117187-1.1601562zm13.929688 1.9609375-.966797.2832031a7 5 0 0 1 .296875 1.0898438l1.005859.1367187a8 6.00001 0 0 0 -.335937-1.5097656zm-15.3867192.25a8 6.00001 0 0 0 -.2578126 1.4257813l1.0039063-.0449219a7 5 0 0 1 .1816406-1.0136719zm14.6777342 2.1269535a7 5 0 0 1 -.587891 1.466797l.990235.27539a8 6.00001 0 0 0 .583984-1.607422zm-13.830078.25-1.0058594.044921a8 6.00001 0 0 0 .5625 1.472657l.9101563-.417969a7 5 0 0 1 -.4667969-1.099609zm1.0878906 1.916015-.9394531.429688a8 6.00001 0 0 0 1.7714844 1.466797c.636032 2.375609-1.8404509 4.501349-1.0292969 5.3125 1.134713.108119 1.8091632-1.566816 2.0820312-3.189453.102073-.13893.4709962-.666928.7675782-1.296876a8 6.00001 0 0 0 3.1406246.488282l-1.066406-1.066406a7 5 0 0 1 -1.7871092-.384766c.0079229-.444052-.2657667-.723596-1.1347657-.544922-.00104-.001377-.0008931-.004509-.0019531-.005859-.079193 0-.1576321-.015794-.2363281-.027344a7 5 0 0 1 -1.5664063-1.181641zm11.4609374.146485a7 5 0 0 1 -1.673828 1.167968l.976563.595703a8 6.00001 0 0 0 1.777343-1.46289zm-2.833984 1.632812a7 5 0 0 1 -2.429688.421875l.921875.921875a8 6.00001 0 0 0 2.59375-.681641z" fill="#4d4d4d"/></svg>

<svg xmlns="http://www.w3.org/2000/svg" viewBox="0 0 24 24">
  <defs id="defs3051">
    <style type="text/css" id="current-color-scheme">
      .ColorScheme-Text {
        color:#4d4d4d;
      }
      </style>
  </defs>
 <path style="fill:currentColor;fill-opacity:1;stroke:none" 
     d="M 11.912109 4 A 8 6.00001 0 0 0 9.4941406 4.3027344 L 10.332031 5.1445312 A 7 5 0 0 1 12 4.9960938 A 7 5 0 0 1 12.527344 5.015625 L 11.912109 4 z M 13.119141 4.0625 L 13.789062 5.1679688 A 7 5 0 0 1 16.53125 6.1855469 L 17.34375 5.5410156 A 8 6.00001 0 0 0 13.119141 4.0625 z M 8.4179688 4.6386719 A 8 6.00001 0 0 0 6.5585938 5.6074219 L 7.53125 6.1542969 A 7 5 0 0 1 9.1953125 5.421875 L 8.4179688 4.6386719 z M 18.158203 6.1699219 L 17.369141 6.796875 A 7 5 0 0 1 18.164062 7.6347656 L 19.164062 7.3417969 A 8 6.00001 0 0 0 18.158203 6.1699219 z M 5.71875 6.28125 A 8 6.00001 0 0 0 4.6855469 7.5859375 L 5.6171875 7.953125 A 7 5 0 0 1 6.6289062 6.7929688 L 5.71875 6.28125 z M 19.648438 8.2421875 L 18.681641 8.5253906 A 7 5 0 0 1 18.978516 9.6152344 L 19.984375 9.7519531 A 8 6.00001 0 0 0 19.648438 8.2421875 z M 4.2617188 8.4921875 A 8 6.00001 0 0 0 4.0039062 9.9179688 L 5.0078125 9.8730469 A 7 5 0 0 1 5.1894531 8.859375 L 4.2617188 8.4921875 z M 18.939453 10.619141 A 7 5 0 0 1 18.351562 12.085938 L 19.341797 12.361328 A 8 6.00001 0 0 0 19.925781 10.753906 L 18.939453 10.619141 z M 5.109375 10.869141 L 4.1035156 10.914062 A 8 6.00001 0 0 0 4.6660156 12.386719 L 5.5761719 11.96875 A 7 5 0 0 1 5.109375 10.869141 z M 6.1972656 12.785156 L 5.2578125 13.214844 A 8 6.00001 0 0 0 7.0292969 14.681641 C 7.6653289 17.05725 5.188846 19.18299 6 19.994141 C 7.134713 20.10226 7.8091632 18.427325 8.0820312 16.804688 C 8.1841042 16.665758 8.5530274 16.13776 8.8496094 15.507812 A 8 6.00001 0 0 0 11.990234 15.996094 L 10.923828 14.929688 A 7 5 0 0 1 9.1367188 14.544922 C 9.1446417 14.10087 8.8709521 13.821326 8.0019531 14 C 8.0009131 13.998623 8.00106 13.995491 8 13.994141 C 7.920807 13.994141 7.8423679 13.978347 7.7636719 13.966797 A 7 5 0 0 1 6.1972656 12.785156 z M 17.658203 12.931641 A 7 5 0 0 1 15.984375 14.099609 L 16.960938 14.695312 A 8 6.00001 0 0 0 18.738281 13.232422 L 17.658203 12.931641 z M 14.824219 14.564453 A 7 5 0 0 1 12.394531 14.986328 L 13.316406 15.908203 A 8 6.00001 0 0 0 15.910156 15.226562 L 14.824219 14.564453 z "
     class="ColorScheme-Text"
     />
</svg>
